packages/tokens/icons/deadEnd/size24Px.svg

<svg viewBox="0 0 24 24" fill="none" xmlns="http://www.w3.org/2000/svg" width="1em" height="1em"><rect x="12.3137" y="1.70711" width="15" height="15" rx="1.5" transform="rotate(45 12.3137 1.70711)" stroke="currentColor"/><path d="M8.9368 10.62C8.9368 9.7 8.2928 9.24 7.4248 9.24H6.4888V12H7.4248C8.2968 12 8.9368 11.544 8.9368 10.62ZM8.2808 10.62C8.2808 11.132 7.9728 11.452 7.4608 11.452H7.1328V9.776H7.4608C7.9848 9.776 8.2808 10.1 8.2808 10.62ZM11.4453 12V11.476H10.2653V10.836H11.3453V10.32H10.2653V9.756H11.4093V9.24H9.6213V12H11.4453ZM14.648 12L13.608 9.236H12.936L11.896 12H12.568L12.764 11.444H13.748L13.944 12H14.648ZM13.6 10.94H12.912L13.256 9.948L13.6 10.94ZM17.6507 10.62C17.6507 9.7 17.0067 9.24 16.1387 9.24H15.2027V12H16.1387C17.0107 12 17.6507 11.544 17.6507 10.62ZM16.9947 10.62C16.9947 11.132 16.6867 11.452 16.1747 11.452H15.8467V9.776H16.1747C16.6987 9.776 16.9947 10.1 16.9947 10.62ZM9.73842 16V15.476H8.55842V14.836H9.63842V14.32H8.55842V13.756H9.70242V13.24H7.91442V16H9.73842ZM12.9531 16V13.24H12.3211V14.492C12.3211 14.784 12.3331 15.096 12.3331 15.096L11.1491 13.24H10.4571V16H11.0891V14.752C11.0891 14.46 11.0771 14.128 11.0771 14.128L12.2891 16H12.9531ZM16.2251 14.62C16.2251 13.7 15.5811 13.24 14.7131 13.24H13.7771V16H14.7131C15.5851 16 16.2251 15.544 16.2251 14.62ZM15.5691 14.62C15.5691 15.132 15.2611 15.452 14.7491 15.452H14.4211V13.776H14.7491C15.2731 13.776 15.5691 14.1 15.5691 14.62Z" fill="currentColor"/></svg>

<svg xmlns="http://www.w3.org/2000/svg" fill="none" viewBox="0 0 24 24" width="1em" height="1em"><rect width="15" height="15" x="12.314" y="1.707" stroke="currentColor" rx="1.5" transform="rotate(45 12.314 1.707)"/><path fill="currentColor" d="M8.937 10.62c0-.92-.644-1.38-1.512-1.38h-.936V12h.936c.872 0 1.512-.456 1.512-1.38Zm-.656 0c0 .512-.308.832-.82.832h-.328V9.776h.328c.524 0 .82.324.82.844ZM11.445 12v-.524h-1.18v-.64h1.08v-.516h-1.08v-.564h1.144V9.24H9.621V12h1.824Zm3.203 0-1.04-2.764h-.672L11.896 12h.672l.196-.556h.984l.196.556h.704ZM13.6 10.94h-.688l.344-.992.344.992Zm4.05-.32c0-.92-.643-1.38-1.511-1.38h-.936V12h.936c.872 0 1.512-.456 1.512-1.38Zm-.655 0c0 .512-.308.832-.82.832h-.328V9.776h.328c.524 0 .82.324.82.844ZM9.738 16v-.524h-1.18v-.64h1.08v-.516h-1.08v-.564h1.144v-.516H7.914V16h1.824Zm3.215 0v-2.76h-.632v1.252c0 .292.012.604.012.604L11.15 13.24h-.692V16h.632v-1.248c0-.292-.012-.624-.012-.624L12.29 16h.664Zm3.272-1.38c0-.92-.644-1.38-1.512-1.38h-.936V16h.936c.872 0 1.512-.456 1.512-1.38Zm-.656 0c0 .512-.308.832-.82.832h-.328v-1.676h.328c.524 0 .82.324.82.844Z"/></svg>
